packages/vibrant-icons/assets/icons/Sparkle/Regular.svg

<svg width="24" height="24" viewBox="0 0 24 24" fill="none" xmlns="http://www.w3.org/2000/svg">
<path d="M5.27683 2.7476C5.47657 3.73103 6.74484 5.16095 7.50688 5.44852C7.63606 5.49727 7.75 5.61193 7.75 5.75C7.75 5.88807 7.63606 6.00273 7.50688 6.05148C6.74484 6.33905 5.47657 7.76897 5.27683 8.7524C5.24935 8.88771 5.13807 9 5 9C4.86193 9 4.75065 8.88771 4.72317 8.7524C4.52343 7.76897 3.25516 6.33905 2.49312 6.05148C2.36394 6.00273 2.25 5.88807 2.25 5.75C2.25 5.61193 2.36394 5.49727 2.49312 5.44852C3.25516 5.16095 4.52343 3.73103 4.72317 2.7476C4.75065 2.61229 4.86193 2.5 5 2.5C5.13807 2.5 5.24935 2.61229 5.27683 2.7476Z" fill="#0C0C0C"/>
<path d="M5.26112 14.7497C5.42591 16.6105 7.38631 18.2904 8.75124 18.4819C8.88797 18.501 9 18.6119 9 18.75C9 18.8881 8.88797 18.999 8.75124 19.0181C7.38631 19.2096 5.42591 20.8895 5.26112 22.7503C5.24894 22.8878 5.13807 23 5 23C4.86193 23 4.75106 22.8878 4.73888 22.7503C4.57409 20.8895 2.61369 19.2096 1.24876 19.0181C1.11203 18.999 1 18.8881 1 18.75C1 18.6119 1.11203 18.501 1.24876 18.4819C2.61369 18.2904 4.57409 16.6105 4.73888 14.7497C4.75106 14.6122 4.86193 14.5 5 14.5C5.13807 14.5 5.24894 14.6122 5.26112 14.7497Z" fill="#0C0C0C"/>
<path fill-rule="evenodd" clip-rule="evenodd" d="M13.7661 2.93543C13.6562 3.39992 13.5101 3.85949 13.3331 4.30995C12.2392 7.09476 9.96594 9.53155 7.77972 10.6301C7.61893 10.7109 7.45863 10.7844 7.29929 10.8503C6.82486 11.0466 6.35906 11.1752 5.9152 11.2258C5.85942 11.2321 5.80399 11.2373 5.74893 11.2411C5.6112 11.2508 5.5 11.3619 5.5 11.5V12.0339C5.5 12.158 5.58973 12.2624 5.7116 12.2859C5.74886 12.293 5.7863 12.3006 5.8239 12.3087C6.26959 12.4046 6.73863 12.5657 7.2173 12.7843C7.38831 12.8625 7.56056 12.9479 7.7334 13.0404C9.93146 14.216 12.2266 16.5224 13.3297 19.2382C13.5057 19.6717 13.6514 20.1156 13.7615 20.567C13.8934 21.1079 13.9742 21.6595 13.9948 22.2168C13.9952 22.2278 13.9955 22.2388 13.9959 22.2498C14.0004 22.3878 14.1119 22.5 14.25 22.5H14.75C14.8881 22.5 14.9996 22.3878 15.0041 22.2498C15.0045 22.2388 15.0048 22.2278 15.0052 22.2168C15.0258 21.6595 15.1066 21.1079 15.2385 20.567C15.3486 20.1156 15.4943 19.6717 15.6703 19.2382C16.7733 16.5224 19.0685 14.216 21.2666 13.0404C21.4394 12.9479 21.6117 12.8625 21.7827 12.7843C22.2614 12.5657 22.7304 12.4046 23.1761 12.3087C23.2137 12.3006 23.2511 12.293 23.2884 12.2859C23.4103 12.2624 23.5 12.158 23.5 12.0339V11.5C23.5 11.3619 23.3888 11.2508 23.2511 11.2411C23.196 11.2373 23.1406 11.2321 23.0848 11.2258C22.6409 11.1752 22.1751 11.0466 21.7007 10.8503C21.5414 10.7844 21.3811 10.7109 21.2203 10.6301C19.0341 9.53155 16.7608 7.09476 15.6669 4.30995C15.4899 3.85949 15.3438 3.39992 15.2339 2.93543C15.1047 2.38903 15.0255 1.83583 15.0052 1.28266C15.0048 1.27173 15.0044 1.2608 15.0041 1.24987C14.9996 1.11187 14.8881 1 14.75 1H14.25C14.1119 1 14.0004 1.11187 13.9959 1.24987C13.9956 1.2608 13.9952 1.27173 13.9948 1.28266C13.9745 1.83583 13.8953 2.38903 13.7661 2.93543ZM14.5 6.9449C15.0193 7.85274 15.6256 8.69003 16.272 9.43075C17.058 10.3313 17.9831 11.1779 18.9862 11.8598C18.0245 12.5219 17.115 13.3243 16.3175 14.2045C15.6554 14.9353 15.0324 15.7617 14.5 16.6636C13.9676 15.7617 13.3446 14.9353 12.6825 14.2045C11.885 13.3243 10.9755 12.5219 10.0138 11.8598C11.0169 11.1779 11.942 10.3313 12.728 9.43075C13.3744 8.69003 13.9807 7.85274 14.5 6.9449Z" fill="#0C0C0C"/>
</svg>

<svg xmlns="http://www.w3.org/2000/svg" width="24" height="24" fill="none"><path fill="#0C0C0C" d="M5.277 2.748c.2.983 1.468 2.413 2.23 2.7.13.05.243.164.243.302s-.114.253-.243.301c-.762.288-2.03 1.718-2.23 2.701C5.249 8.888 5.138 9 5 9s-.25-.112-.277-.248c-.2-.983-1.468-2.413-2.23-2.7-.13-.05-.243-.164-.243-.302s.114-.253.243-.301c.762-.288 2.03-1.718 2.23-2.701.028-.136.139-.248.277-.248s.25.112.277.248M5.261 14.75c.165 1.86 2.125 3.54 3.49 3.732.137.019.249.13.249.268s-.112.249-.249.268c-1.365.192-3.325 1.872-3.49 3.732A.27.27 0 0 1 5 23a.27.27 0 0 1-.261-.25c-.165-1.86-2.125-3.54-3.49-3.732C1.112 19 1 18.888 1 18.75s.112-.249.249-.268c1.365-.192 3.325-1.872 3.49-3.732A.27.27 0 0 1 5 14.5c.138 0 .249.112.261.25"/><path fill="#0C0C0C" fill-rule="evenodd" d="M13.766 2.935q-.166.698-.433 1.375C12.24 7.095 9.966 9.532 7.78 10.63q-.241.12-.48.22c-.475.197-.94.325-1.385.376l-.166.015a.264.264 0 0 0-.249.259v.534c0 .124.09.228.212.252l.112.023c.446.096.915.257 1.393.475q.257.118.516.256c2.198 1.176 4.494 3.482 5.597 6.198q.265.652.431 1.329c.132.54.213 1.093.234 1.65v.033c.005.138.117.25.255.25h.5c.138 0 .25-.112.254-.25l.001-.033c.02-.557.102-1.11.233-1.65q.166-.677.432-1.329c1.103-2.716 3.399-5.022 5.597-6.198q.259-.138.516-.256a7 7 0 0 1 1.505-.498.26.26 0 0 0 .212-.252V11.5a.264.264 0 0 0-.249-.259l-.166-.015c-.444-.05-.91-.18-1.384-.376q-.24-.1-.48-.22c-2.187-1.098-4.46-3.535-5.554-6.32a10 10 0 0 1-.433-1.375 8.6 8.6 0 0 1-.23-1.685.256.256 0 0 0-.254-.25h-.5a.256.256 0 0 0-.254.25l-.001.033a8.6 8.6 0 0 1-.229 1.652m.734 4.01c.52.908 1.126 1.745 1.772 2.486a14.4 14.4 0 0 0 2.714 2.429 15.5 15.5 0 0 0-4.486 4.804 15.503 15.503 0 0 0-4.486-4.804 14.4 14.4 0 0 0 2.714-2.43A15.5 15.5 0 0 0 14.5 6.946" clip-rule="evenodd"/></svg>
